rospo-icon-theme-classic-common/24x24/mimetypes/text-x-maxima-out.svg

<svg height="24" width="24" xmlns="http://www.w3.org/2000/svg"><path d="m5 2.5c-.554 0-1 .446-1 1v18c0 .554.446 1 1 1h14c .554 0 1-.446 1-1v-13l-6-6z" opacity=".2"/><path d="m5 2c-.554 0-1 .446-1 1v18c0 .554.446 1 1 1h14c .554 0 1-.446 1-1v-13l-6-6z" fill="#404b8b"/><path d="m20 8.5-6-6v5c0 .554.446 1 1 1z" opacity=".2"/><path d="m20 8-6-6v5c0 .554.446 1 1 1z" fill="#6672ba"/><path d="m5 2c-.554 0-1 .446-1 1v .5c0-.554.446-1 1-1h9v-.5z" fill="#fff" opacity=".1"/><path d="m9.0002 11.50002v.7l.0028.29998 1.496999 2.5-1.499999 2.5v1h5.5v-1.5h-1v .5h-3.5000007l1.4999997-2.5-1.4999997-2.5h3.0000007v.5h1v-1.5h-4.9998999z" opacity=".2"/><path d="m9.0002 11.00002v.7l.0028.29998 1.496999 2.5-1.499999 2.5v1h5.5v-1.5h-1v .5h-3.5000007l1.4999997-2.5-1.4999997-2.5h3.0000007v.5h1v-1.5h-4.9998999z" fill="#f26265"/></svg>

<svg xmlns="http://www.w3.org/2000/svg" width="24" height="24" version="1.1">
 <path style="opacity:0.2" d="M 5,2.5 C 4.446,2.5 4,2.946 4,3.5 V 21.5 C 4,22.054 4.446,22.5 5,22.5 H 19 C 19.554,22.5 20,22.054 20,21.5 V 8.5 L 14,2.5 Z"/>
 <path style="fill:#404b8b" d="M 5,2 C 4.446,2 4,2.446 4,3 V 21 C 4,21.554 4.446,22 5,22 H 19 C 19.554,22 20,21.554 20,21 V 8 L 14,2 Z"/>
 <path style="opacity:0.2" d="M 20,8.5 14,2.5 V 7.5 C 14,8.054 14.446,8.5 15,8.5 Z"/>
 <path style="fill:#6672ba" d="M 20,8 14,2 V 7 C 14,7.554 14.446,8 15,8 Z"/>
 <path style="opacity:0.1;fill:#ffffff" d="M 5 2 C 4.446 2 4 2.446 4 3 L 4 3.5 C 4 2.946 4.446 2.5 5 2.5 L 14 2.5 L 14 2 L 5 2 z"/>
 <path style="opacity:0.2" d="m 9.0002,11.50002 0,0.7 L 9.003,12.5 10.499999,15 9,17.5 l 0,1 5.5,0 0,-1.5 -1,0 0,0.5 -3.5000007,0 L 11.499999,15 9.9999993,12.5 13,12.5 l 0,0.5 1,0 0,-1.5 -4.9998999,0 z"/>
 <path style="fill:#f26265" d="m 9.0002,11.00002 0,0.7 L 9.003,12 10.499999,14.5 9,17 l 0,1 5.5,0 0,-1.5 -1,0 0,0.5 L 9.9999993,17 11.499999,14.5 9.9999993,12 13,12 l 0,0.5 1,0 0,-1.5 -4.9998999,0 z"/>
</svg>
